assets/images/industries/1.svg

<svg xmlns="http://www.w3.org/2000/svg" viewBox="0 0 120 112.43"><defs><style>.cls-3,.cls-4{stroke:#000;stroke-miterlimit:10}.cls-3{fill:#f2f2f2}.cls-4{fill:#0077bf}</style></defs><g id="Layer_2" data-name="Layer 2"><g id="software"><path d="M106.32 14.17C104.1 11.74 95.55 2.36 81.46.47c-3-.4-17.09-2.29-26 6-11.74 11-1.81 28.07-11.87 41.16C35 58.89 18.54 47.9 7.45 59.14 1.66 65-1.4 74.85.63 82.21c6.34 23 68.94 45.86 100.87 16 23.25-21.79 22.7-64.43 4.82-84.04z" fill="#fff"/><path d="M87.5 33.27H33.32A4.33 4.33 0 0 0 29 37.61v36.84h62.83V37.61a4.33 4.33 0 0 0-4.33-4.34zm0 36.84H33.32v-32.5H87.5z" stroke="#000" stroke-miterlimit="10" fill="#ffe600"/><path class="cls-3" d="M63.66 53.86a3.25 3.25 0 1 1-3.25-3.25 3.25 3.25 0 0 1 3.25 3.25z"/><path class="cls-3" d="M33.32 70.12H87.5V37.61H33.32zm15.17-18.43h4.65a7.63 7.63 0 0 1 .6-1.44L50.45 47l3.07-3.07 3.27 3.28a7.63 7.63 0 0 1 1.44-.6v-4.67h4.33v4.65a7.63 7.63 0 0 1 1.44.6l3.3-3.29 3.07 3.1-3.28 3.28a7.63 7.63 0 0 1 .6 1.44h4.65V56h-4.66a7.63 7.63 0 0 1-.6 1.44l3.28 3.27-3.06 3.11-3.3-3.28a7.63 7.63 0 0 1-1.44.6v4.65h-4.32v-4.66a7.63 7.63 0 0 1-1.44-.6l-3.28 3.28-3.07-3.07 3.28-3.27a7.63 7.63 0 0 1-.6-1.44h-4.64z"/><path class="cls-4" d="M29 81a2.17 2.17 0 0 0 2.17 2.17h58.5A2.17 2.17 0 0 0 91.83 81v-6.5H29z"/><path class="cls-4" d="M55 83.12h10.83v8.67H55z"/><path class="cls-4" d="M49.57 91.79a2.17 2.17 0 1 0 0 4.33h21.67a2.17 2.17 0 0 0 0-4.33z"/><path d="M53.73 57.47h0l-3.28 3.27 3.07 3.07 3.28-3.28a7.63 7.63 0 0 0 1.44.6v4.65h4.33v-4.65a7.63 7.63 0 0 0 1.44-.6l3.28 3.28 3.07-3.07-3.28-3.27h0a7.63 7.63 0 0 0 .6-1.44h4.65v-4.34h-4.65a7.63 7.63 0 0 0-.6-1.44L70.37 47l-3.07-3.1-3.3 3.29h0a7.63 7.63 0 0 0-1.44-.6v-4.65h-4.32v4.65a7.63 7.63 0 0 0-1.44.6h0l-3.28-3.29-3.07 3.1 3.28 3.28a7.63 7.63 0 0 0-.6 1.44h-4.64V56h4.65a7.63 7.63 0 0 0 .59 1.47zm6.68-6.86a3.25 3.25 0 1 1-3.25 3.25 3.25 3.25 0 0 1 3.25-3.25z" fill="#eb058c" stroke="#000" stroke-miterlimit="10"/><rect y="96.12" width="120" height="2.13" rx="1.06" ry="1.06" id="Layer_1-2" data-name="Layer 1"/></g></g></svg>

<svg xmlns="http://www.w3.org/2000/svg" viewBox="0 0 120 112.43"><defs><style>.cls-1{fill:#fff;}.cls-2{fill:#ffe600;}.cls-2,.cls-3,.cls-4,.cls-5{stroke:#000;stroke-miterlimit:10;}.cls-3{fill:#f2f2f2;}.cls-4{fill:#0077bf;}.cls-5{fill:#eb058c;}</style></defs><title>software</title><g id="Layer_2" data-name="Layer 2"><g id="software"><path class="cls-1" d="M106.32,14.17C104.1,11.74,95.55,2.36,81.46.47c-3-.4-17.09-2.29-26,6-11.74,11-1.81,28.07-11.87,41.16C35,58.89,18.54,47.9,7.45,59.14,1.66,65-1.4,74.85.63,82.21c6.34,23,68.94,45.86,100.87,16C124.75,76.42,124.2,33.78,106.32,14.17Z"/><path class="cls-2" d="M87.5,33.27H33.32A4.33,4.33,0,0,0,29,37.61V74.45H91.83V37.61A4.33,4.33,0,0,0,87.5,33.27Zm0,36.84H33.32V37.61H87.5Z"/><path class="cls-3" d="M63.66,53.86a3.25,3.25,0,1,1-3.25-3.25A3.25,3.25,0,0,1,63.66,53.86Z"/><path class="cls-3" d="M33.32,70.12H87.5V37.61H33.32ZM48.49,51.69h4.65a7.63,7.63,0,0,1,.6-1.44L50.45,47l3.07-3.07,3.27,3.28h0a7.63,7.63,0,0,1,1.44-.6V41.94h4.33v4.65a7.63,7.63,0,0,1,1.44.6h0L67.3,43.9,70.37,47l-3.28,3.28a7.63,7.63,0,0,1,.6,1.44h4.65V56H67.68a7.63,7.63,0,0,1-.6,1.44h0l3.28,3.27L67.3,63.82,64,60.54a7.63,7.63,0,0,1-1.44.6v4.65H58.24V61.13a7.63,7.63,0,0,1-1.44-.6l-3.28,3.28-3.07-3.07,3.28-3.27h0a7.63,7.63,0,0,1-.6-1.44H48.49Z"/><path class="cls-4" d="M29,81a2.17,2.17,0,0,0,2.17,2.17H89.67A2.17,2.17,0,0,0,91.83,81v-6.5H29Z"/><path class="cls-4" d="M55,83.12H65.83v8.67H55Z"/><path class="cls-4" d="M49.57,91.79a2.17,2.17,0,1,0,0,4.33H71.24a2.17,2.17,0,0,0,0-4.33Z"/><path class="cls-5" d="M53.73,57.47h0l-3.28,3.27,3.07,3.07,3.28-3.28a7.63,7.63,0,0,0,1.44.6v4.65h4.33V61.13a7.63,7.63,0,0,0,1.44-.6l3.28,3.28,3.07-3.07-3.28-3.27h0a7.63,7.63,0,0,0,.6-1.44h4.65V51.69H67.68a7.63,7.63,0,0,0-.6-1.44L70.37,47,67.3,43.9,64,47.19h0a7.63,7.63,0,0,0-1.44-.6V41.94H58.24v4.65a7.63,7.63,0,0,0-1.44.6h0L53.52,43.9,50.45,47l3.28,3.28a7.63,7.63,0,0,0-.6,1.44H48.49V56h4.65A7.63,7.63,0,0,0,53.73,57.47Zm6.68-6.86a3.25,3.25,0,1,1-3.25,3.25A3.25,3.25,0,0,1,60.41,50.61Z"/><g id="Layer_1-2" data-name="Layer 1"><rect y="96.12" width="120" height="2.13" rx="1.06" ry="1.06"/></g></g></g></svg>
